images/inst-icon.svg

<svg width="16" height="16" viewBox="0 0 16 16" fill="none" xmlns="http://www.w3.org/2000/svg">
<path d="M8.68539 1.33337C9.43539 1.33537 9.81606 1.33937 10.1447 1.34871L10.2741 1.35337C10.4234 1.35871 10.5707 1.36537 10.7487 1.37337C11.4581 1.40671 11.9421 1.51871 12.3667 1.68337C12.8067 1.85271 13.1774 2.08204 13.5481 2.45204C13.8871 2.7853 14.1494 3.18843 14.3167 3.63337C14.4814 4.05804 14.5934 4.54204 14.6267 5.25204C14.6347 5.42937 14.6414 5.57671 14.6467 5.72671L14.6507 5.85604C14.6607 6.18404 14.6647 6.56471 14.6661 7.31471L14.6667 7.81204V8.68537C14.6684 9.17164 14.6633 9.65791 14.6514 10.144L14.6474 10.2734C14.6421 10.4234 14.6354 10.5707 14.6274 10.748C14.5941 11.458 14.4807 11.9414 14.3167 12.3667C14.1498 12.8119 13.8875 13.2151 13.5481 13.548C13.2147 13.8869 12.8116 14.1492 12.3667 14.3167C11.9421 14.4814 11.4581 14.5934 10.7487 14.6267C10.5905 14.6342 10.4323 14.6408 10.2741 14.6467L10.1447 14.6507C9.81606 14.66 9.43539 14.6647 8.68539 14.666L8.18806 14.6667H7.31539C6.8289 14.6684 6.34241 14.6633 5.85606 14.6514L5.72673 14.6474C5.56847 14.6414 5.41024 14.6345 5.25206 14.6267C4.54273 14.5934 4.05873 14.4814 3.63339 14.3167C3.18851 14.1496 2.78554 13.8873 2.45273 13.548C2.11342 13.2149 1.85088 12.8117 1.68339 12.3667C1.51873 11.942 1.40673 11.458 1.37339 10.748C1.36596 10.5899 1.3593 10.4316 1.35339 10.2734L1.35006 10.144C1.33777 9.65792 1.33222 9.17165 1.33339 8.68537V7.31471C1.33153 6.82844 1.33642 6.34217 1.34806 5.85604L1.35273 5.72671C1.35806 5.57671 1.36473 5.42937 1.37273 5.25204C1.40606 4.54204 1.51806 4.05871 1.68273 3.63337C1.85014 3.18798 2.11321 2.78472 2.45339 2.45204C2.78612 2.11302 3.18882 1.8507 3.63339 1.68337C4.05873 1.51871 4.54206 1.40671 5.25206 1.37337C5.42939 1.36537 5.57739 1.35871 5.72673 1.35337L5.85606 1.34937C6.34219 1.33753 6.82846 1.33242 7.31473 1.33404L8.68539 1.33337ZM8.00006 4.66671C7.116 4.66671 6.26816 5.0179 5.64304 5.64302C5.01792 6.26814 4.66673 7.11599 4.66673 8.00004C4.66673 8.8841 5.01792 9.73194 5.64304 10.3571C6.26816 10.9822 7.116 11.3334 8.00006 11.3334C8.88411 11.3334 9.73196 10.9822 10.3571 10.3571C10.9822 9.73194 11.3334 8.8841 11.3334 8.00004C11.3334 7.11599 10.9822 6.26814 10.3571 5.64302C9.73196 5.0179 8.88411 4.66671 8.00006 4.66671ZM8.00006 6.00004C8.2627 6 8.52278 6.05169 8.76545 6.15215C9.00812 6.25262 9.22862 6.39991 9.41437 6.58559C9.60012 6.77128 9.74747 6.99173 9.84802 7.23437C9.94857 7.477 10.0003 7.73706 10.0004 7.99971C10.0004 8.26235 9.94875 8.52243 9.84828 8.7651C9.74781 9.00777 9.60053 9.22827 9.41484 9.41402C9.22916 9.59977 9.0087 9.74712 8.76607 9.84767C8.52343 9.94822 8.26337 10 8.00073 10C7.47029 10 6.96158 9.78933 6.58651 9.41426C6.21144 9.03918 6.00073 8.53047 6.00073 8.00004C6.00073 7.46961 6.21144 6.9609 6.58651 6.58583C6.96158 6.21075 7.47029 6.00004 8.00073 6.00004M11.5007 3.66671C11.2797 3.66671 11.0677 3.7545 10.9115 3.91079C10.7552 4.06707 10.6674 4.27903 10.6674 4.50004C10.6674 4.72105 10.7552 4.93302 10.9115 5.0893C11.0677 5.24558 11.2797 5.33337 11.5007 5.33337C11.7217 5.33337 11.9337 5.24558 12.09 5.0893C12.2463 4.93302 12.3341 4.72105 12.3341 4.50004C12.3341 4.27903 12.2463 4.06707 12.09 3.91079C11.9337 3.7545 11.7217 3.66671 11.5007 3.66671Z" fill="#89725B"/>
</svg>

<svg width="16" height="16" fill="none" xmlns="http://www.w3.org/2000/svg"><path d="M8.685 1.333a57.5 57.5 0 0 1 1.46.016l.13.004.474.02c.71.034 1.193.146 1.618.31.44.17.81.399 1.181.769.34.333.601.736.769 1.181.164.425.276.909.31 1.619l.02.475.004.129c.01.328.014.709.015 1.459v1.37c.002.487-.003.973-.015 1.459l-.004.13c-.005.15-.012.297-.02.474-.033.71-.146 1.193-.31 1.619-.167.445-.43.848-.769 1.181a3.277 3.277 0 0 1-1.181.769c-.425.164-.909.276-1.618.31l-.475.02-.13.004c-.328.009-.709.014-1.459.015h-1.37c-.486.002-.973-.003-1.459-.015l-.13-.004a41.763 41.763 0 0 1-.474-.02c-.71-.034-1.193-.146-1.619-.31a3.259 3.259 0 0 1-1.18-.769 3.27 3.27 0 0 1-.77-1.181c-.164-.425-.276-.909-.31-1.619a49.39 49.39 0 0 1-.02-.475l-.003-.129a52.693 52.693 0 0 1-.017-1.459v-1.37c-.001-.487.003-.973.015-1.459l.005-.13c.005-.15.012-.297.02-.474.033-.71.145-1.193.31-1.619.167-.445.43-.848.77-1.181a3.265 3.265 0 0 1 1.18-.769c.426-.164.91-.276 1.62-.31l.474-.02.13-.004c.485-.011.971-.017 1.458-.015h1.37ZM8 4.667a3.333 3.333 0 1 0 0 6.666 3.333 3.333 0 0 0 0-6.666ZM8 6a2 2 0 1 1 0 4 2 2 0 0 1 0-4m3.5-2.333a.833.833 0 1 0 0 1.666.833.833 0 0 0 0-1.666Z" fill="#89725B"/></svg>
